X:170
T:Lord Kelly's Reel.
N:probably by the Earl of Kelly
M:C
L:1/8
K:EMin
D|B,EGE BEGE |D>EFd DE (G/F/E/D/)|B,EEG FAGB|Ad (B/A/G/F/) GE
E::
e|geBe  Ee eg|fdAd  Dd  de/f/    |geBe  dBAG|Fd  B/A/G/F/  GE Ee|
  geBe  EG eg|fdAd  DA  df       |gefd  eBAG|Fd  B/A/G/F/  GE E:|
